X:44
T:O'Donnell's
Z: id:dc-hornpipe-40
M:C|
L:1/8
K:G Major
Bc|(3dcB ge dBed|BGDG ABAG|FGAB cBcg|(3agf (3gfe dcBc|!
(3dcB ge dBed|BGDG ABAG|FGAB cdef|(3gfg ba g2:|!
(3def|gbag fagf|ef (3gfe fdBd|gbag fagf|ef (3gfe fdBd|!
(3cdc Ac (3BdB GB|(3ABA FA GFEc|DEFG AB (3cBA|(3d^cd ba g2:|!

